X:1
T:The Grand Slam
T:The Grand Slam
T:ABB
C:ABB
L:1/8
M:4/4
K:A
V:1 treble 
V:1
 AB |"A" c<e e>f ecBA |"D" a>g fd"A" e2 fa |"A" c2 c>B"F#m" Afec |"B7" B2 B>c"E7" B2 ed | %5
"A" c<e e>f ecBA |"D" a>g fd"A" e2 A>B |"A" ce"D"fa"A" c<e"E7" d>B |"A" A2"D" A>B"A" A2 | x8 |: %10
 cd | e>A Ac eaga |"D" f>e df"A" e2 fa |"A" c2 c>B"F#m" Afec |"B7" B2 B>c"E7" B2 cd | %15
"A" e>A Ac eaga |"D" f>e fg"D#dim" a2 AB |"A" ce"D"fa"A" c<e"E7" d>B | A2 A>B A2 :| %19

